icons/duplicate-16.svg

<svg xmlns="http://www.w3.org/2000/svg" width="16" height="16" viewBox="0 0 16 16"><path d="M10.5 3a.75.75 0 01.75.75v1h1a.75.75 0 010 1.5h-1v1a.75.75 0 01-1.5 0v-1h-1a.75.75 0 010-1.5h1v-1A.75.75 0 0110.5 3z"/><path d="M6.75 0h7.5C15.216 0 16 .784 16 1.75v7.5A1.75 1.75 0 0114.25 11h-7.5A1.75 1.75 0 015 9.25v-7.5C5 .784 5.784 0 6.75 0zM6.5 1.75v7.5c0 .138.112.25.25.25h7.5a.25.25 0 00.25-.25v-7.5a.25.25 0 00-.25-.25h-7.5a.25.25 0 00-.25.25z"/><path d="M1.75 5A1.75 1.75 0 000 6.75v7.5C0 15.216.784 16 1.75 16h7.5A1.75 1.75 0 0011 14.25v-1.5a.75.75 0 00-1.5 0v1.5a.25.25 0 01-.25.25h-7.5a.25.25 0 01-.25-.25v-7.5a.25.25 0 01.25-.25h1.5a.75.75 0 000-1.5h-1.5z"/></svg>

<svg xmlns="http://www.w3.org/2000/svg" width="16" height="16" viewBox="0 0 16 16">
  <defs/>
  <path d="M10.5,3 A0.75 0.75 0 0 1 11.25,3.75 L11.25,4.75 L12.25,4.75 A0.75 0.75 0 0 1 12.25,6.25 L11.25,6.25 L11.25,7.25 A0.75 0.75 0 0 1 9.75,7.25 L9.75,6.25 L8.75,6.25 A0.75 0.75 0 0 1 8.75,4.75 L9.75,4.75 L9.75,3.75 A0.75 0.75 0 0 1 10.5,3 Z"/>
  <path d="M6.75,0 L14.25,0 C15.216,0 16,0.784 16,1.75 L16,9.25 C16,10.216 15.216,11 14.25,11 L6.75,11 C5.784,11 5,10.216 5,9.25 L5,1.75 C5,0.784 5.784,0 6.75,0 Z M6.5,1.75 L6.5,9.25 C6.5,9.388 6.612,9.5 6.75,9.5 L14.25,9.5 C14.388,9.5 14.5,9.388 14.5,9.25 L14.5,1.75 C14.5,1.612 14.388,1.5 14.25,1.5 L6.75,1.5 C6.612,1.5 6.5,1.612 6.5,1.75 Z"/>
  <path d="M1.75,5 A1.75 1.75 0 0 0 0,6.75 L0,14.25 C0,15.216 0.784,16 1.75,16 L9.25,16 A1.75 1.75 0 0 0 11,14.25 L11,12.75 A0.75 0.75 0 0 0 9.5,12.75 L9.5,14.25 A0.25 0.25 0 0 1 9.25,14.5 L1.75,14.5 A0.25 0.25 0 0 1 1.5,14.25 L1.5,6.75 A0.25 0.25 0 0 1 1.75,6.5 L3.25,6.5 A0.75 0.75 0 0 0 3.25,5 L1.75,5 Z"/>
</svg>
